X:1
T:New Hornpipe
T:Grant's Rant
M:C|
L:1/8
R:Reel or Hornpipe
S:William Vickers' 1770 music manuscript collection (Northumberland)
N:Vickers gives "Grant's Rant" as an alternate title.
Z:AK/Fiddler's Companion
K:D
F>G|A3B AFDF|AFdB AFDF|GBGE FAFD|E2 E>E E3A|
FDFA d3f|edcB A2 Bc|dfdB cecB|A2 A>A A2:|
|:cd|e3f ecAc|ecaf ecAc|dfdB cecA|B2 B>B B3c|
d3B AFDF|GABc d2 cB|A2 GF EGFE|D2 D>D D2:|

